icons/mobile/24/svg/extension-critical-24.svg

<svg width="24" height="24" viewBox="0 0 24 24" fill="none" xmlns="http://www.w3.org/2000/svg">
<path d="M11.371 19.238C9.56702 19.254 7.76102 19.162 5.97702 18.944C5.27702 18.857 4.74802 18.256 4.74902 17.544V16.595H5.70402C7.42302 16.595 8.82102 15.199 8.82102 13.484C8.82102 11.769 7.42302 10.373 5.70402 10.373H4.75002V9.48901C4.74802 8.77701 5.28502 8.17501 5.99802 8.08701C6.87402 7.98101 7.76102 7.90001 8.63302 7.85201C9.09602 7.82601 9.45802 7.44201 9.45802 6.97801V5.28801C9.45802 4.44101 10.15 3.75301 11.001 3.75301C11.852 3.75301 12.543 4.44101 12.543 5.28801V7.02001C12.543 7.48301 12.906 7.86701 13.369 7.89301C14.373 7.95001 15.208 8.01601 15.995 8.10301C16.71 8.18101 17.249 8.78501 17.249 9.50601V11.527C17.415 11.514 17.58 11.502 17.749 11.502C18.177 11.502 18.594 11.546 18.999 11.625V9.50601C18.999 7.89001 17.79 6.53901 16.187 6.36201C15.595 6.29801 14.98 6.24301 14.294 6.19601V5.28601C14.294 3.47501 12.815 2.00201 11 2.00201C9.18502 2.00201 7.70802 3.47601 7.70802 5.28701V6.15901C7.06702 6.20801 6.42402 6.27201 5.78502 6.35001C4.19502 6.54501 2.99802 7.89501 2.99902 9.49101L3.00102 11.249C3.00102 11.731 3.39402 12.123 3.87602 12.123H5.70402C6.45802 12.123 7.07102 12.733 7.07102 13.484C7.07102 14.235 6.45802 14.845 5.70402 14.845H3.87602C3.39402 14.845 3.00202 15.237 3.00102 15.719L2.99902 17.542C2.99902 19.138 4.18602 20.487 5.76402 20.681C7.49502 20.894 9.25702 21.001 11 21.001C11.324 21.001 11.649 20.978 11.974 20.971C11.696 20.432 11.489 19.851 11.37 19.239L11.371 19.238Z" fill="black"/>
<path fill-rule="evenodd" clip-rule="evenodd" d="M17.75 13C20.507 13 22.75 15.243 22.75 18C22.75 20.757 20.507 23 17.75 23C14.993 23 12.75 20.757 12.75 18C12.75 15.243 14.993 13 17.75 13ZM17.75 17.75C17.3358 17.75 17 18.0858 17 18.5V20.25C17 20.6642 17.3358 21 17.75 21C18.1642 21 18.5 20.6642 18.5 20.25V18.5C18.5 18.0858 18.1642 17.75 17.75 17.75ZM17.75 15C17.3358 15 17 15.3358 17 15.75C17 16.1642 17.3358 16.5 17.75 16.5C18.1642 16.5 18.5 16.1642 18.5 15.75C18.5 15.3358 18.1642 15 17.75 15Z" fill="black"/>
</svg>

<!-- This Source Code Form is subject to the terms of the Mozilla Public
   - License, v. 2.0. If a copy of the MPL was not distributed with this
   - file, You can obtain one at http://mozilla.org/MPL/2.0/. -->
<svg xmlns="http://www.w3.org/2000/svg" width="24" height="24" fill="none" viewBox="0 0 24 24">
    <path fill="#000" d="M11.371 19.238a41.5 41.5 0 0 1-5.394-.294 1.41 1.41 0 0 1-1.228-1.4v-.949h.955a3.12 3.12 0 0 0 3.117-3.111 3.12 3.12 0 0 0-3.117-3.111H4.75v-.884a1.415 1.415 0 0 1 1.248-1.402 41 41 0 0 1 2.635-.235.875.875 0 0 0 .825-.874v-1.69a1.54 1.54 0 0 1 1.543-1.535 1.54 1.54 0 0 1 1.542 1.535V7.02c0 .463.363.847.826.873 1.004.057 1.839.123 2.626.21a1.41 1.41 0 0 1 1.254 1.403v2.021c.166-.013.331-.025.5-.025.428 0 .845.044 1.25.123V9.506a3.157 3.157 0 0 0-2.812-3.144 48 48 0 0 0-1.893-.166v-.91a3.293 3.293 0 0 0-6.586.001v.872q-.963.074-1.923.191a3.17 3.17 0 0 0-2.786 3.141l.002 1.758c0 .482.393.874.875.874h1.828c.754 0 1.367.61 1.367 1.361s-.613 1.361-1.367 1.361H3.876a.876.876 0 0 0-.875.874l-.002 1.823a3.16 3.16 0 0 0 2.765 3.139c1.731.213 3.493.32 5.236.32.324 0 .649-.023.974-.03a6.5 6.5 0 0 1-.604-1.732z" />
    <path fill="#000" fill-rule="evenodd" d="M17.75 13c2.757 0 5 2.243 5 5s-2.243 5-5 5-5-2.243-5-5 2.243-5 5-5m0 4.75a.75.75 0 0 0-.75.75v1.75a.75.75 0 0 0 1.5 0V18.5a.75.75 0 0 0-.75-.75m0-2.75a.75.75 0 1 0 0 1.5.75.75 0 0 0 0-1.5" clip-rule="evenodd" />
</svg>
